assets/lib/svg/flags/1x1/pt-30.svg

<svg id="flag-icons-pt-30" class="fi fi-pt-30" viewBox="0 0 512 512" xmlns="http://www.w3.org/2000/svg" width="512" height="512">
  <metadata id="flag-icons">
    <name>Madeira</name>
    <code>pt-30</code>
    <iso>true</iso>
    <type>Place</type>
    <capital>Funchal</capital>
    <continent>Europe</continent>
  </metadata>
  <g style="stroke-width:.297619">
    <path fill="#263e78" d="M0 0h180v129H0" style="stroke-width:.558036" transform="scale(2.84444 3.96897)"/>
    <path fill="gold" d="M60 0h60v129H60" style="stroke-width:.558036" transform="scale(2.84444 3.96897)"/>
  </g>
  <g style="stroke-width:.351563">
    <path fill="#da291c" d="m90 48 12-12H78m0 48h24L90 72m12-12 12 12V48m-48 0v24l12-12m-6 6h36V54H72m12-12v36h12V42" style="stroke-width:.659179" transform="matrix(2.84444 0 0 2.84438 0 85.333)"/>
    <path stroke="#fff" stroke-width="4" d="M255.998 204.798v102.4m51.2-51.2h-102.4"/>
  </g>
</svg>

<?xml version="1.0" encoding="UTF-8" standalone="no"?>
<svg
   width="640"
   height="640"
   viewBox="0 0 96 96"
   version="1.1"
   id="svg18404"
   sodipodi:docname="pt-md.svg"
   inkscape:version="1.2.2 (b0a84865, 2022-12-01)"
   xmlns:inkscape="http://www.inkscape.org/namespaces/inkscape"
   xmlns:sodipodi="http://sodipodi.sourceforge.net/DTD/sodipodi-0.dtd"
   xmlns="http://www.w3.org/2000/svg"
   xmlns:svg="http://www.w3.org/2000/svg">
  <defs
     id="defs18408" />
  <sodipodi:namedview
     id="namedview18406"
     pagecolor="#ffffff"
     bordercolor="#666666"
     borderopacity="1.0"
     inkscape:showpageshadow="2"
     inkscape:pageopacity="0.0"
     inkscape:pagecheckerboard="0"
     inkscape:deskcolor="#d1d1d1"
     showgrid="false"
     inkscape:zoom="0.9359375"
     inkscape:cx="320"
     inkscape:cy="320"
     inkscape:window-width="1440"
     inkscape:window-height="819"
     inkscape:window-x="0"
     inkscape:window-y="25"
     inkscape:window-maximized="0"
     inkscape:current-layer="svg18404" />
  <g
     id="g18539"
     style="stroke-width:1.5873"
     transform="scale(0.53333333,0.74418605)">
    <path
       fill="#263e78"
       d="M 0,0 H 180 V 129 H 0"
       id="path18396"
       style="stroke-width:2.97619" />
    <path
       fill="#ffd700"
       d="m 60,0 h 60 V 129 H 60"
       id="path18398"
       style="stroke-width:2.97619" />
  </g>
  <g
     id="g18543"
     style="stroke-width:1.875"
     transform="matrix(0.53333333,0,0,0.53333333,0,16)">
    <path
       fill="#da291c"
       d="M 90,48 102,36 H 78 m 0,48 h 24 L 90,72 m 12,-12 12,12 V 48 M 66,48 V 72 L 78,60 m -6,6 h 36 V 54 H 72 M 84,42 V 78 H 96 V 42"
       id="path18400"
       style="stroke-width:3.51562" />
    <path
       stroke="#ffffff"
       stroke-width="7.5"
       d="M 90,42 V 78 M 108,60 H 72"
       id="path18402" />
  </g>
</svg>
